src/lib/packages/icons/src/assets/filled/sort-descending-circle.svg

<svg width="24" height="24" viewBox="0 0 24 24" fill="none" xmlns="http://www.w3.org/2000/svg">
<path d="M12 2C6.477 2 2 6.477 2 12C2 17.523 6.477 22 12 22C17.523 22 22 17.523 22 12C22 6.477 17.523 2 12 2ZM13 16.75H11C10.586 16.75 10.25 16.414 10.25 16C10.25 15.586 10.586 15.25 11 15.25H13C13.414 15.25 13.75 15.586 13.75 16C13.75 16.414 13.414 16.75 13 16.75ZM14.5 12.75H9.5C9.086 12.75 8.75 12.414 8.75 12C8.75 11.586 9.086 11.25 9.5 11.25H14.5C14.914 11.25 15.25 11.586 15.25 12C15.25 12.414 14.914 12.75 14.5 12.75ZM16 8.75H8C7.586 8.75 7.25 8.414 7.25 8C7.25 7.586 7.586 7.25 8 7.25H16C16.414 7.25 16.75 7.586 16.75 8C16.75 8.414 16.414 8.75 16 8.75Z" fill="currentColor"/>
</svg>

<svg xmlns="http://www.w3.org/2000/svg" width="24" height="24" fill="none"><path fill="currentColor" d="M12 2C6.477 2 2 6.477 2 12s4.477 10 10 10 10-4.477 10-10S17.523 2 12 2Zm1 14.75h-2a.75.75 0 0 1 0-1.5h2a.75.75 0 0 1 0 1.5Zm1.5-4h-5a.75.75 0 0 1 0-1.5h5a.75.75 0 0 1 0 1.5Zm1.5-4H8a.75.75 0 0 1 0-1.5h8a.75.75 0 0 1 0 1.5Z"/></svg>
